icons/media/forward-30.svg

<svg width="32" height="32" viewBox="0 0 32 32" fill="none" xmlns="http://www.w3.org/2000/svg">
<path fill-rule="evenodd" clip-rule="evenodd" d="M26.2071 6.70736L26.9142 6.00025L26.2071 5.29314L21.2069 0.292892L19.7926 1.7071L23.0858 5.00024L15.5 5.00024V5C8.59644 5 3 10.5964 3 17.5C3 24.4036 8.59644 30 15.5 30C22.4036 30 28 24.4036 28 17.5C28 15.8982 27.6982 14.3646 27.1475 12.9544L25.2845 13.682C25.7462 14.864 26 16.1511 26 17.5C26 23.299 21.299 28 15.5 28C9.70101 28 5 23.299 5 17.5C5 11.7011 9.70088 7.00013 15.4998 7V7.00024L23.0858 7.00024L19.7926 10.2934L21.2069 11.7076L26.2071 6.70736ZM9.99978 19H12.9998V21H8.99978V23H13.4998C14.3282 23 14.9998 22.3284 14.9998 21.5V14.5C14.9998 13.6716 14.3282 13 13.4998 13H8.99978V15H12.9998V17H9.99978V19ZM18.0003 21V15H20.0003V21H18.0003ZM17.5003 13C16.6719 13 16.0003 13.6716 16.0003 14.5V21.5C16.0003 22.3284 16.6719 23 17.5003 23H20.5003C21.3287 23 22.0003 22.3284 22.0003 21.5V14.5C22.0003 13.6716 21.3287 13 20.5003 13H17.5003Z" fill="black"/>
</svg>

<svg width="32" height="32" viewBox="0 0 32 32" xmlns="http://www.w3.org/2000/svg">
    <path fill-rule="evenodd" d="M26.207 6.707L26.914 6l-.707-.707-5-5-1.414 1.414L23.086 5H15.5C8.596 5 3 10.596 3 17.5S8.596 30 15.5 30 28 24.404 28 17.5c0-1.602-.302-3.135-.852-4.546l-1.863.728c.461 1.182.715 2.47.715 3.818C26 23.299 21.299 28 15.5 28S5 23.299 5 17.5 9.7 7 15.5 7h7.586l-3.293 3.293 1.414 1.415 5-5zM10 19h3v2H9v2h5l1-1v-8l-1-1H9v2h4v2h-3v2zm7-6l-1 1v8l1 1h4l1-1v-8l-1-1h-4zm1 8v-6h2v6h-2z"/>
</svg>
